art/gc.svg

<?xml version="1.0" encoding="utf-8"?>
<!-- Generator: Adobe Illustrator 16.0.3, SVG Export Plug-In . SVG Version: 6.00 Build 0)  -->
<!DOCTYPE svg PUBLIC "-//W3C//DTD SVG 1.1//EN" "http://www.w3.org/Graphics/SVG/1.1/DTD/svg11.dtd">
<svg version="1.1" id="Ebene_1" xmlns="http://www.w3.org/2000/svg" xmlns:xlink="http://www.w3.org/1999/xlink" x="0px" y="0px"
	 width="566.93px" height="124.23px" viewBox="0 0 566.93 124.23" enable-background="new 0 0 566.93 124.23" xml:space="preserve">
<g id="underneath_1_">
</g>
<g id="BOTTOM_LEFT_LINE">
</g>
<g>
	<g>
		<g id="Layer_6">
			<line fill="none" x1="29.248" y1="99.123" x2="28.12" y2="98.282"/>
		</g>
		<g id="_x33_D_PART">
			
				<linearGradient id="SVGID_1_" gradientUnits="userSpaceOnUse" x1="24.4146" y1="564.8718" x2="104.7434" y2="551.509" gradientTransform="matrix(1 0 0 1 -0.0049 -473.4258)">
				<stop  offset="0.0368" style="stop-color:#FFFFFF"/>
				<stop  offset="0.8957" style="stop-color:#898CBF"/>
			</linearGradient>
			<polygon fill="url(#SVGID_1_)" points="89.451,62.438 89.451,82.608 53.699,103.224 18.222,82.608 16.628,83.691 53.699,105.427 
				91.065,83.824 91.065,61.505 			"/>
		</g>
		<g id="black_line_thing">
			<polygon fill="#7A7EAE" points="89.451,82.52 91.065,83.685 91.065,83.824 90.963,83.9 89.308,82.69 89.451,82.608 			"/>
		</g>
		<g id="dark_purple_top_line">
			
				<linearGradient id="SVGID_2_" gradientUnits="userSpaceOnUse" x1="28.4609" y1="68.8367" x2="54.0488" y2="68.8367" gradientTransform="matrix(1 0 0 -1 -0.0449 123.9897)">
				<stop  offset="0" style="stop-color:#6E70A9"/>
				<stop  offset="0.9693" style="stop-color:#514A8E"/>
			</linearGradient>
			<polygon fill="url(#SVGID_2_)" points="54.004,62.205 28.814,47.455 28.416,47.853 53.699,62.851 			"/>
			
				<linearGradient id="SVGID_3_" gradientUnits="userSpaceOnUse" x1="53.8574" y1="61.6809" x2="54.185" y2="61.6809" gradientTransform="matrix(1 0 0 -1 -0.0449 123.9897)">
				<stop  offset="0" style="stop-color:#6E70A9"/>
				<stop  offset="0.9693" style="stop-color:#514A8E"/>
			</linearGradient>
			<polygon fill="url(#SVGID_3_)" points="53.922,62.205 54.107,62.205 54.14,62.413 53.813,62.413 			"/>
		</g>
		<g id="top_black_line">
			<polygon fill="#120F22" points="54.004,62.851 54.004,62.205 107.627,31.206 107.785,31.647 			"/>
		</g>
		<g id="LOGO_DARK_LINES">
			<polygon fill="#453D76" points="54.004,124.23 54.363,105.729 91.582,84.28 91.72,61.312 91.065,61.312 91.065,83.824 
				53.699,105.427 53.565,124.23 			"/>
		</g>
		<g id="LOGO">
			
				<linearGradient id="SVGID_4_" gradientUnits="userSpaceOnUse" x1="64.0845" y1="540.3259" x2="108.7263" y2="569.6315" gradientTransform="matrix(1 0 0 1 -0.0049 -473.4258)">
				<stop  offset="0" style="stop-color:#4C5284"/>
				<stop  offset="1" style="stop-color:#8789BC"/>
			</linearGradient>
			<polygon fill="url(#SVGID_4_)" points="54.004,91.212 54.004,62.851 107.785,31.647 107.785,93.197 54.004,124.23 
				54.004,105.573 91.361,84.062 91.361,61.332 78.85,68.566 78.85,76.595 			"/>
		</g>
		<g id="BOTTOM_LAIN_LEFT_LIGHT_LINE">
			
				<linearGradient id="SVGID_5_" gradientUnits="userSpaceOnUse" x1="53.4639" y1="596.9988" x2="53.1529" y2="577.0955" gradientTransform="matrix(1 0 0 1 -0.0049 -473.4258)">
				<stop  offset="0.1104" style="stop-color:#4C407E"/>
				<stop  offset="0.8896" style="stop-color:#666699"/>
				<stop  offset="1" style="stop-color:#A7B3D9"/>
				<stop  offset="1" style="stop-color:#9BA5CD"/>
			</linearGradient>
			<polyline fill="url(#SVGID_5_)" points="53.402,124.23 53.699,124.23 53.699,105.427 52.642,104.806 53.402,124.23 			"/>
		</g>
		<g id="underneath">
			<polyline fill="#2D2868" points="16.542,40.703 16.771,40.897 16.862,83.532 16.628,83.691 16.486,83.601 16.542,40.703 			"/>
		</g>
		<g id="LEFT_3D_PURPLE_SHADOW">
			<polygon fill="#453D76" points="18.222,82.608 16.628,83.691 16.628,40.755 54.004,19.174 54.004,21.3 18.26,41.987 			"/>
		</g>
		<g id="MAIN_DARK_PURPLE_LINE">
			<polygon fill="#453D76" points="54.004,62.094 54.004,91.212 53.699,91.417 53.699,62.851 53.699,62.028 			"/>
		</g>
		<g id="logo_LEFT_side">
			
				<linearGradient id="SVGID_6_" gradientUnits="userSpaceOnUse" x1="4.8237" y1="553.1326" x2="66.0259" y2="536.1235" gradientTransform="matrix(1 0 0 1 -0.0049 -473.4258)">
				<stop  offset="0.2331" style="stop-color:#666699"/>
				<stop  offset="0.7239" style="stop-color:#A7B3D9"/>
			</linearGradient>
			<polygon fill="url(#SVGID_6_)" points="28.416,47.853 28.416,76.802 53.699,91.417 53.699,62.851 			"/>
			
				<linearGradient id="SVGID_7_" gradientUnits="userSpaceOnUse" x1="5.8823" y1="556.9314" x2="67.0802" y2="539.9235" gradientTransform="matrix(1 0 0 1 -0.0049 -473.4258)">
				<stop  offset="0.2331" style="stop-color:#666699"/>
				<stop  offset="0.9907" style="stop-color:#A7B3D9"/>
			</linearGradient>
			<polygon fill="url(#SVGID_7_)" points="53.402,123.926 53.402,105.251 16.628,83.691 16.628,40.964 0,31.206 0,93.302 
				53.402,124.23 			"/>
		</g>
		<g id="left_purple_line">
			<rect x="16.343" y="40.755" fill="#2D2868" width="0.285" height="42.938"/>
			<polygon fill="#2D2868" points="16.628,40.755 0.214,30.992 0,31.206 16.486,40.897 			"/>
		</g>
		<g id="BOTTOM_PURPLE_LINE">
			
				<linearGradient id="SVGID_8_" gradientUnits="userSpaceOnUse" x1="19.5859" y1="559.8142" x2="43.9208" y2="572.8358" gradientTransform="matrix(1 0 0 1 -0.0049 -473.4258)">
				<stop  offset="0" style="stop-color:#6E70A9"/>
				<stop  offset="0.9693" style="stop-color:#514A8E"/>
			</linearGradient>
			<polygon fill="url(#SVGID_8_)" points="53.402,105.251 53.402,105.603 16.343,84.015 16.343,83.691 16.628,83.691 			"/>
		</g>
		<g id="top_middle_light_line">
			
				<linearGradient id="SVGID_9_" gradientUnits="userSpaceOnUse" x1="55.7349" y1="495.6541" x2="71.1853" y2="503.1706" gradientTransform="matrix(1 0 0 1 -0.0049 -473.4258)">
				<stop  offset="0.0368" style="stop-color:#9EA5D3"/>
				<stop  offset="0.9018" style="stop-color:#7675AE"/>
			</linearGradient>
			<polygon fill="url(#SVGID_9_)" points="54.004,19.174 77.901,33.142 77.901,35.231 54.004,21.3 			"/>
		</g>
		<g id="top_right">
			<polygon fill="#484592" points="77.901,33.142 77.901,35.231 94.454,25.524 94.454,23.552 			"/>
		</g>
		<g id="MAIN_TOP">
			<path fill="none" d="M0,31.206"/>
			
				<linearGradient id="SVGID_10_" gradientUnits="userSpaceOnUse" x1="0.2188" y1="504.4177" x2="0.2188" y2="504.4177" gradientTransform="matrix(1 0 0 1 -0.0049 -473.4258)">
				<stop  offset="0.2331" style="stop-color:#666699"/>
				<stop  offset="0.9907" style="stop-color:#A7B3D9"/>
			</linearGradient>
			<path fill="url(#SVGID_10_)" d="M0.214,30.992"/>
			
				<linearGradient id="SVGID_11_" gradientUnits="userSpaceOnUse" x1="49.3857" y1="477.947" x2="45.7412" y2="518.442" gradientTransform="matrix(1 0 0 1 -0.0049 -473.4258)">
				<stop  offset="0" style="stop-color:#AAACD2"/>
				<stop  offset="0.6258" style="stop-color:#FCFAFB"/>
			</linearGradient>
			<polygon fill="url(#SVGID_11_)" points="53.833,0 94.454,23.552 77.901,33.142 54.004,19.174 16.628,40.755 0.214,30.992 			"/>
			
				<linearGradient id="SVGID_12_" gradientUnits="userSpaceOnUse" x1="71.7798" y1="473.2654" x2="68.1352" y2="513.7612" gradientTransform="matrix(1 0 0 1 -0.0049 -473.4258)">
				<stop  offset="0.6743" style="stop-color:#AAACD2"/>
				<stop  offset="1" style="stop-color:#FCFAFB"/>
			</linearGradient>
			<polygon fill="url(#SVGID_12_)" points="28.814,47.455 53.68,33.409 77.369,46.781 106.232,30.192 107.627,31.206 54.004,62.205 
							"/>
		</g>
	</g>
	<g>
		<path id="path23497" d="M373.52,21.158v-4.949h-14.143c-1.816,0-3.533,0.404-5.054,1.11c-1.513,0.71-2.726,1.718-3.634,2.932
			c-0.908,1.209-1.314,2.529-1.416,4.04v15.252c0.1,1.417,0.508,2.729,1.313,3.944c0.912,1.21,2.121,2.116,3.537,2.924
			c1.516,0.71,3.127,1.115,5.053,1.115h14.34v-4.949h-13.739c-1.11,0-2.118-0.306-3.022-0.911c-0.815-0.604-1.318-1.312-1.318-2.319
			v-5.657h18.082v-5.053h-18.082v-4.142c0-1.013,0.503-1.817,1.318-2.427c0.904-0.606,1.912-0.91,3.022-0.91h13.739"/>
		<path id="path23501" d="M457.952,16.21v31.317h15.102c1.916-0.098,3.625-0.405,5.139-1.107c1.609-0.804,2.818-1.712,3.723-2.921
			c0.908-1.203,1.307-2.615,1.408-4.127V24.266c-0.102-1.507-0.5-2.821-1.408-4.028c-0.904-1.208-2.111-2.213-3.723-2.921
			c-1.514-0.705-3.225-1.107-5.139-1.107H457.952L457.952,16.21z M475.778,22.052c0.898,0.604,1.303,1.407,1.404,2.418v14.803
			c-0.104,1.006-0.506,1.812-1.404,2.416c-0.809,0.703-1.82,1.005-2.928,1.005h-8.758V21.046h8.758
			C473.958,21.046,474.969,21.347,475.778,22.052"/>
		<path id="path23503" d="M531.958,17.302c-1.488-0.692-3.172-0.993-5.053-1.093h-5.453c-1.885,0.099-3.566,0.4-5.057,1.093
			c-1.584,0.794-2.775,1.68-3.666,2.874c-0.895,1.186-1.389,2.576-1.389,4.063v15.359c0,1.486,0.494,2.777,1.389,3.967
			c0.891,1.19,2.082,2.179,3.666,2.874c1.49,0.693,3.172,1.089,5.057,1.089h5.453c1.881,0,3.563-0.396,5.053-1.089
			c1.584-0.694,2.773-1.684,3.666-2.874c0.893-1.191,1.387-2.577,1.387-3.967v-15.36c-0.096-1.487-0.494-2.877-1.387-4.063
			C534.731,18.981,533.542,18.095,531.958,17.302z M529.579,21.958c0.891,0.694,1.387,1.484,1.387,2.382v15.059
			c0,0.892-0.496,1.686-1.387,2.379c-0.793,0.597-1.787,0.994-2.873,0.994h-5.055c-1.094,0-2.084-0.396-2.977-0.994
			c-0.789-0.694-1.285-1.487-1.285-2.379V24.34c0-0.897,0.496-1.688,1.285-2.382c0.893-0.596,1.883-0.893,2.977-0.992h5.055
			C527.793,21.067,528.786,21.363,529.579,21.958"/>
		<path id="path23515" d="M169.301,16.21h-6.163v20.003L152.634,16.21h-8.385v31.317h6.163V23.083l12.828,24.444h6.061V16.21"/>
		<path id="path23515_1_" d="M269.711,16.21h-6.163v20.003L253.043,16.21h-8.385v31.317h6.163V23.083l12.828,24.444h6.062V16.21"/>
		<path id="path23515_2_" d="M428.299,16.21h-6.162v20.003L411.633,16.21h-8.387v31.317h6.163V23.083l12.828,24.444h6.062V16.21"/>
		<path id="path23517" d="M210.526,47.527V16.21h-7.07v31.317H210.526L210.526,47.527"/>
		<path id="path23521" d="M296.922,16.21v4.949h10.401v26.369h6.671v-26.37h10.504v-4.949H296.92l0,0"/>
	</g>
	<g>
		<path id="path23505" d="M543.92,69.03v-8.463h-42.717v40.229h43.113v-9.062h-31.855v-7.57h18.316v-8.457h-18.316V69.03H543.92
			L543.92,69.03"/>
		<path id="path23507" d="M496.374,68.755c0.096-2.785-0.697-4.977-2.393-6.274c-1.596-1.394-4.08-2.09-7.467-2.09h-35.148v40.325
			h32.658c8.563-0.099,12.744-2.887,12.744-8.562v-4.883c0-3.382-1.492-5.87-4.582-7.262c2.789-1.298,4.188-3.487,4.188-6.576
			V68.755L496.374,68.755z M485.52,68.955c0.398,0.399,0.602,0.8,0.496,1.396v3.685c0.104,0.495-0.098,0.995-0.496,1.293
			l-2.795,0.495h-20.107v-7.266h20.107C484.227,68.558,485.221,68.757,485.52,68.955L485.52,68.955z M462.618,91.855v-7.867h20.211
			c1.496,0,2.393,0.201,2.889,0.5c0.402,0.401,0.596,0.998,0.596,1.993v2.886c0,0.897-0.191,1.594-0.596,1.891
			c-0.496,0.4-1.393,0.597-2.889,0.597L462.618,91.855"/>
		<path id="path23509" d="M446.614,60.458h-11.25v31.167h-24.396V60.458h-11.248v30.271c-0.106,2.486,0.295,4.484,0.99,5.975
			c0.6,1.395,1.797,2.49,3.389,3.089c1.597,0.695,3.684,0.993,6.47,0.896h25.093c2.789,0.097,4.977-0.201,6.57-0.896
			c1.59-0.599,2.689-1.694,3.389-3.089c0.695-1.491,0.996-3.487,0.996-5.975V60.458"/>
		<path id="path23511" d="M394.09,64.607c-0.705-1.489-1.896-2.488-3.388-3.186c-1.596-0.602-3.784-0.898-6.473-0.898h-24.591
			c-2.789,0-4.881,0.298-6.478,0.898c-1.591,0.697-2.786,1.696-3.382,3.186c-0.697,1.494-1.096,3.484-0.993,5.974v20.214
			c-0.103,2.484,0.296,4.48,0.993,5.971c0.596,1.396,1.791,2.491,3.382,3.093c1.597,0.693,3.688,0.991,6.478,0.893h24.592
			c2.688,0.098,4.877-0.199,6.473-0.893c1.492-0.602,2.684-1.697,3.387-3.093c0.597-1.489,0.996-3.485,0.996-5.971v-7.371
			l-11.256,0.105v8.162h-23.893V69.39h23.893v7.165h11.256v-5.974C395.086,67.996,394.687,66.007,394.09,64.607"/>
		<path id="path23513" d="M340.461,69.03v-8.463h-42.718v40.229h43.116v-9.062h-31.861v-7.57h18.321v-8.457h-18.321V69.03H340.461
			L340.461,69.03"/>
		<path id="path23523" d="M282.411,60.458l-17.127,28.48l-17.025-28.48h-10.254v33.159l-20.016-33.159h-10.056l-23.994,40.228
			h30.068v-9.061h-13.442l12.447-20.013l16.828,29.072h18.519V79.179l12.842,21.505h8.266l12.942-21.505v21.505h10.354V60.457
			h-10.354l0,0"/>
		<path id="path23525" d="M184.83,69.307v-8.77h-37.938c-2.685,0-4.879,0.3-6.474,0.899c-1.59,0.696-2.686,1.698-3.381,3.187
			c-0.7,1.493-0.998,3.483-0.998,5.975v20.21c0,2.486,0.298,4.483,0.998,5.975c0.696,1.395,1.792,2.49,3.381,3.091
			c1.594,0.692,3.789,0.991,6.474,0.895h27.584c3.978,0.097,6.768-0.599,8.458-2.091c1.595-1.595,2.391-4.183,2.294-7.868v-14.24
			H159.14v8.47h15.135v6.667H147.29V69.307H184.83"/>
	</g>
	<g>
		<path id="path23527" d="M566.93,91.979h-1.693l-2.041,6.45c-0.334,0.513-0.51,1.024-0.51,1.362
			c-0.172-0.338-0.346-0.682-0.512-1.188l-2.211-6.626h-1.699v9.17h1.027v-7.813l2.717,7.813h1.012l2.721-7.642v7.642h1.189V91.979"
			/>
		<path id="path23529" d="M554.016,93.167h2.893v-1.188h-7.139v1.188h3.063v7.982h1.186v-7.982"/>
	</g>
</g>
</svg>

<?xml version="1.0" standalone="no"?><!-- Generator: Gravit.io --><svg xmlns="http://www.w3.org/2000/svg" xmlns:xlink="http://www.w3.org/1999/xlink" style="isolation:isolate" viewBox="0 0 566.93 124.23" width="566.93" height="124.23"><g id="null"><g id="null"><g id="Layer_6"><line x1="29.248" y1="99.123" x2="28.12" y2="98.282"/></g><g id="_x33_D_PART"><path d=" M 89.451 62.438 L 89.451 82.608 L 53.699 103.224 L 18.222 82.608 L 16.628 83.691 L 53.699 105.427 L 91.065 83.824 L 91.065 61.505 L 89.451 62.438 Z " fill="rgb(255,255,255)"/></g><g id="black_line_thing"><path d=" M 89.451 82.52 L 91.065 83.685 L 91.065 83.824 L 90.963 83.9 L 89.308 82.69 L 89.451 82.608 L 89.451 82.52 Z " fill="rgb(255,255,255)"/></g><g id="dark_purple_top_line"><path d=" M 54.004 62.205 L 28.814 47.455 L 28.416 47.853 L 53.699 62.851 L 54.004 62.205 Z " fill="rgb(255,255,255)"/><path d=" M 53.922 62.205 L 54.107 62.205 L 54.14 62.413 L 53.813 62.413 L 53.922 62.205 Z " fill="rgb(255,255,255)"/></g><g id="top_black_line"><path d=" M 54.004 62.851 L 54.004 62.205 L 107.627 31.206 L 107.785 31.647 L 54.004 62.851 Z " fill="rgb(255,255,255)"/></g><g id="LOGO_DARK_LINES"><path d=" M 54.004 124.23 L 54.363 105.729 L 91.582 84.28 L 91.72 61.312 L 91.065 61.312 L 91.065 83.824 L 53.699 105.427 L 53.565 124.23 L 54.004 124.23 Z " fill="rgb(255,255,255)"/></g><g id="LOGO"><path d=" M 54.004 91.212 L 54.004 62.851 L 107.785 31.647 L 107.785 93.197 L 54.004 124.23 L 54.004 105.573 L 91.361 84.062 L 91.361 61.332 L 78.85 68.566 L 78.85 76.595 L 54.004 91.212 Z " fill="rgb(255,255,255)"/></g><g id="BOTTOM_LAIN_LEFT_LIGHT_LINE"><path d=" M 53.402 124.23 L 53.699 124.23 L 53.699 105.427 L 52.642 104.806 L 53.402 124.23" fill="rgb(255,255,255)"/></g><g id="underneath"><path d=" M 16.542 40.703 L 16.771 40.897 L 16.862 83.532 L 16.628 83.691 L 16.486 83.601 L 16.542 40.703" fill="rgb(255,255,255)"/></g><g id="LEFT_3D_PURPLE_SHADOW"><path d=" M 18.222 82.608 L 16.628 83.691 L 16.628 40.755 L 54.004 19.174 L 54.004 21.3 L 18.26 41.987 L 18.222 82.608 Z " fill="rgb(255,255,255)"/></g><g id="MAIN_DARK_PURPLE_LINE"><path d=" M 54.004 62.094 L 54.004 91.212 L 53.699 91.417 L 53.699 62.851 L 53.699 62.028 L 54.004 62.094 Z " fill="rgb(255,255,255)"/></g><g id="logo_LEFT_side"><path d=" M 28.416 47.853 L 28.416 76.802 L 53.699 91.417 L 53.699 62.851 L 28.416 47.853 Z " fill="rgb(255,255,255)"/><path d=" M 53.402 123.926 L 53.402 105.251 L 16.628 83.691 L 16.628 40.964 L 0 31.206 L 0 93.302 L 53.402 124.23 L 53.402 123.926 Z " fill="rgb(255,255,255)"/></g><g id="left_purple_line"><rect x="16.343" y="40.755" width="0.285" height="42.938" transform="matrix(1,0,0,1,0,0)" fill="rgb(255,255,255)"/><path d=" M 16.628 40.755 L 0.214 30.992 L 0 31.206 L 16.486 40.897 L 16.628 40.755 Z " fill="rgb(255,255,255)"/></g><g id="BOTTOM_PURPLE_LINE"><path d=" M 53.402 105.251 L 53.402 105.603 L 16.343 84.015 L 16.343 83.691 L 16.628 83.691 L 53.402 105.251 Z " fill="rgb(255,255,255)"/></g><g id="top_middle_light_line"><path d=" M 54.004 19.174 L 77.901 33.142 L 77.901 35.231 L 54.004 21.3 L 54.004 19.174 Z " fill="rgb(255,255,255)"/></g><g id="top_right"><path d=" M 77.901 33.142 L 77.901 35.231 L 94.454 25.524 L 94.454 23.552 L 77.901 33.142 Z " fill="rgb(255,255,255)"/></g><g id="MAIN_TOP"><path d=" M 53.833 0 L 94.454 23.552 L 77.901 33.142 L 54.004 19.174 L 16.628 40.755 L 0.214 30.992 L 53.833 0 Z " fill="rgb(255,255,255)"/><path d=" M 28.814 47.455 L 53.68 33.409 L 77.369 46.781 L 106.232 30.192 L 107.627 31.206 L 54.004 62.205 L 28.814 47.455 Z " fill="rgb(255,255,255)"/></g></g><g id="null"><path d=" M 373.52 21.158 L 373.52 16.209 L 359.377 16.209 C 357.561 16.209 355.844 16.613 354.323 17.319 C 352.81 18.029 351.597 19.037 350.689 20.251 C 349.781 21.46 349.375 22.78 349.273 24.291 L 349.273 39.543 C 349.373 40.96 349.781 42.272 350.586 43.487 C 351.498 44.697 352.707 45.603 354.123 46.411 C 355.639 47.121 357.25 47.526 359.176 47.526 L 373.516 47.526 L 373.516 42.577 L 359.777 42.577 C 358.667 42.577 357.659 42.271 356.755 41.666 C 355.94 41.062 355.437 40.354 355.437 39.347 L 355.437 33.69 L 373.519 33.69 L 373.519 28.637 L 355.437 28.637 L 355.437 24.495 C 355.437 23.482 355.94 22.678 356.755 22.068" fill="rgb(255,255,255)"/><path d=" M 457.952 16.21 L 457.952 47.527 L 473.054 47.527 C 474.97 47.429 476.679 47.122 478.193 46.42 C 479.802 45.616 481.011 44.708 481.916 43.499 C 482.824 42.296 483.223 40.884 483.324 39.372 L 483.324 24.266 C 483.222 22.759 482.824 21.445 481.916 20.238 C 481.012 19.03 479.805 18.025 478.193 17.317 C 476.679 16.612 474.968 16.21 473.054 16.21 L 457.952 16.21 L 457.952 16.21 L 457.952 16.21 Z  M 475.778 22.052 C 476.676 22.656 477.081 23.459 477.182 24.47 L 477.182 39.273 C 477.078 40.279 476.676 41.085 475.778 41.689 C 474.969 42.392 473.958 42.694 472.85 42.694 L 464.092 42.694 L 464.092 21.046 L 472.85 21.046 C 473.958 21.046 474.969 21.347 475.778 22.052 Z " fill="rgb(255,255,255)"/><path d=" M 531.958 17.302 C 530.47 16.61 528.786 16.309 526.905 16.209 L 521.452 16.209 C 519.567 16.308 517.886 16.609 516.395 17.302 C 514.811 18.096 513.62 18.982 512.729 20.176 C 511.834 21.362 511.34 22.752 511.34 24.239 L 511.34 39.598 C 511.34 41.084 511.834 42.375 512.729 43.565 C 513.62 44.755 514.811 45.744 516.395 46.439 C 517.885 47.132 519.567 47.528 521.452 47.528 L 526.905 47.528 C 528.786 47.528 530.468 47.132 531.958 46.439 C 533.542 45.745 534.731 44.755 535.624 43.565 C 536.517 42.374 537.011 40.988 537.011 39.598 L 537.011 24.238 C 536.915 22.751 536.517 21.361 535.624 20.175 C 534.731 18.981 533.542 18.095 531.958 17.302 Z  M 529.579 21.958 C 530.47 22.652 530.966 23.442 530.966 24.34 L 530.966 39.399 C 530.966 40.291 530.47 41.085 529.579 41.778 C 528.786 42.375 527.792 42.772 526.706 42.772 L 521.651 42.772 C 520.557 42.772 519.567 42.376 518.674 41.778 C 517.885 41.084 517.389 40.291 517.389 39.399 L 517.389 24.34 C 517.389 23.443 517.885 22.652 518.674 21.958 C 519.567 21.362 520.557 21.065 521.651 20.966 L 526.706 20.966 C 527.793 21.067 528.786 21.363 529.579 21.958 Z " fill="rgb(255,255,255)"/><path d=" M 169.301 16.21 L 163.138 16.21 L 163.138 36.213 L 152.634 16.21 L 144.249 16.21 L 144.249 47.527 L 150.412 47.527 L 150.412 23.083 L 163.24 47.527 L 169.301 47.527 L 169.301 16.21" fill="rgb(255,255,255)"/><path d=" M 269.711 16.21 L 263.548 16.21 L 263.548 36.213 L 253.043 16.21 L 244.658 16.21 L 244.658 47.527 L 250.821 47.527 L 250.821 23.083 L 263.649 47.527 L 269.711 47.527 L 269.711 16.21 Z " fill="rgb(255,255,255)"/><path d=" M 428.299 16.21 L 422.137 16.21 L 422.137 36.213 L 411.633 16.21 L 403.246 16.21 L 403.246 47.527 L 409.409 47.527 L 409.409 23.083 L 422.237 47.527 L 428.299 47.527 L 428.299 16.21 Z " fill="rgb(255,255,255)"/><path d=" M 210.526 47.527 L 210.526 16.21 L 203.456 16.21 L 203.456 47.527 L 210.526 47.527 L 210.526 47.527 Z " fill="rgb(255,255,255)"/><path d=" M 296.922 16.21 L 296.922 21.159 L 307.323 21.159 L 307.323 47.528 L 313.994 47.528 L 313.994 21.158 L 324.498 21.158 L 324.498 16.209 L 296.92 16.209 L 296.92 16.209" fill="rgb(255,255,255)"/></g><g id="null"><path d=" M 543.92 69.03 L 543.92 60.567 L 501.203 60.567 L 501.203 100.796 L 544.316 100.796 L 544.316 91.734 L 512.461 91.734 L 512.461 84.164 L 530.777 84.164 L 530.777 75.707 L 512.461 75.707 L 512.461 69.03 L 543.92 69.03 L 543.92 69.03 Z " fill="rgb(255,255,255)"/><path d=" M 496.374 68.755 C 496.47 65.97 495.677 63.778 493.981 62.481 C 492.385 61.087 489.901 60.391 486.514 60.391 L 451.366 60.391 L 451.366 100.716 L 484.024 100.716 C 492.587 100.617 496.768 97.829 496.768 92.154 L 496.768 87.271 C 496.768 83.889 495.276 81.401 492.186 80.009 C 494.975 78.711 496.374 76.522 496.374 73.433 L 496.374 68.755 L 496.374 68.755 L 496.374 68.755 Z  M 485.52 68.955 C 485.918 69.354 486.122 69.755 486.016 70.351 L 486.016 74.036 C 486.12 74.531 485.918 75.031 485.52 75.329 L 482.725 75.824 L 462.618 75.824 L 462.618 68.558 L 482.725 68.558 C 484.227 68.558 485.221 68.757 485.52 68.955 L 485.52 68.955 L 485.52 68.955 Z  M 462.618 91.855 L 462.618 83.988 L 482.829 83.988 C 484.325 83.988 485.222 84.189 485.718 84.488 C 486.12 84.889 486.314 85.486 486.314 86.481 L 486.314 89.367 C 486.314 90.264 486.123 90.961 485.718 91.258 C 485.222 91.658 484.325 91.855 482.829 91.855 L 462.618 91.855 Z " fill="rgb(255,255,255)"/><path d=" M 446.614 60.458 L 435.364 60.458 L 435.364 91.625 L 410.968 91.625 L 410.968 60.458 L 399.72 60.458 L 399.72 90.729 C 399.614 93.215 400.015 95.213 400.71 96.704 C 401.31 98.099 402.507 99.194 404.099 99.793 C 405.696 100.488 407.783 100.786 410.569 100.689 L 435.662 100.689 C 438.451 100.786 440.639 100.488 442.232 99.793 C 443.822 99.194 444.921 98.099 445.621 96.704" fill="rgb(255,255,255)"/><path d=" M 394.09 64.607 C 393.385 63.118 392.194 62.119 390.702 61.421 C 389.106 60.819 386.918 60.523 384.229 60.523 L 359.638 60.523 C 356.849 60.523 354.757 60.821 353.16 61.421 C 351.569 62.118 350.374 63.117 349.778 64.607 C 349.081 66.101 348.682 68.091 348.785 70.581 L 348.785 90.795 C 348.682 93.279 349.081 95.275 349.778 96.766 C 350.374 98.162 351.569 99.257 353.16 99.859 C 354.757 100.552 356.848 100.85 359.638 100.752 L 384.23 100.752 C 386.918 100.85 389.107 100.553 390.703 99.859 C 392.195 99.257 393.387 98.162 394.09 96.766 C 394.687 95.277 395.086 93.281 395.086 90.795 L 395.086 83.424 L 383.83 83.529 L 383.83 91.691 L 359.937 91.691 L 359.937 69.39 L 383.83 69.39 L 383.83 76.555 L 395.086 76.555 L 395.086 70.581 C 395.086 67.996 394.687 66.007 394.09 64.607 Z " fill="rgb(255,255,255)"/><path d=" M 340.461 69.03 L 340.461 60.567 L 297.743 60.567 L 297.743 100.796 L 340.859 100.796 L 340.859 91.734 L 308.998 91.734 L 308.998 84.164 L 327.319 84.164 L 327.319 75.707 L 308.998 75.707 L 308.998 69.03 L 340.461 69.03 L 340.461 69.03 Z " fill="rgb(255,255,255)"/><path d=" M 282.411 60.458 L 265.284 88.938 L 248.259 60.458 L 238.005 60.458 L 238.005 93.617 L 217.989 60.458 L 207.933 60.458 L 183.939 100.686 L 214.007 100.686 L 214.007 91.625 L 200.565 91.625 L 213.012 71.612 L 229.84 100.684 L 248.359 100.684 L 248.359 79.179 L 261.201 100.684 L 269.467 100.684 L 282.409 79.179 L 282.409 100.684 L 292.763 100.684 L 292.763 60.457 L 282.409 60.457 L 282.409 60.457" fill="rgb(255,255,255)"/><path d=" M 184.83 69.307 L 184.83 60.537 L 146.892 60.537 C 144.207 60.537 142.013 60.837 140.418 61.436 C 138.828 62.132 137.732 63.134 137.037 64.623 C 136.337 66.116 136.039 68.106 136.039 70.598 L 136.039 90.808 C 136.039 93.294 136.337 95.291 137.037 96.783 C 137.733 98.178 138.829 99.273 140.418 99.874 C 142.012 100.566 144.207 100.865 146.892 100.769 L 174.476 100.769 C 178.454 100.866 181.244 100.17 182.934 98.678 C 184.529 97.083 185.325 94.495 185.228 90.81 L 185.228 76.57 L 159.14 76.57 L 159.14 85.04 L 174.275 85.04 L 174.275 91.707 L 147.29 91.707 L 147.29 69.307 L 184.83 69.307 Z " fill="rgb(255,255,255)"/></g></g></svg>
